X: 27
T:Marquis of Huntley
M:4/4
L:1/8
R:Strathspey
K:Gm
F|"Gm"D<GG>F D<GG>A|"F"F>GA>B c/B/A/G/ F>A|"Gm"D<GG>F D<GG>g|"F"fc d/c/B
/A/|"Gm"B<G G:||!
d|"Gm"g>a b<g "D"d<gb<g|"F"a/g/f/d/ c>=e "C"f<ca>f|"Gm"g>ab>g "Bb"d<gb>g
|
"D"b/a/g/f/ d<^f "Gm"g/g/g g>d|!"Gm"g>a b<g "D"a>^f "Gm"g>=e|"F"f>d c<f 
A<F c<F|
"Gm"D<GG>F D<GG>g|"F"fc d/c/B/A/ "Gm"B<G G||
